app/public/dtpr-icons/sound.svg

<svg width="36" height="36" viewBox="0 0 36 36" fill="none" xmlns="http://www.w3.org/2000/svg">
<path d="M31.8564 8.8453L19 1.42265C18.3812 1.06538 17.6188 1.06538 17 1.42265L4.14359 8.8453C3.52479 9.20257 3.14359 9.86282 3.14359 10.5774V25.4226C3.14359 26.1372 3.52479 26.7974 4.14359 27.1547L17 34.5774C17.6188 34.9346 18.3812 34.9346 19 34.5774L31.8564 27.1547C32.4752 26.7974 32.8564 26.1372 32.8564 25.4226V10.5774C32.8564 9.86282 32.4752 9.20256 31.8564 8.8453Z" stroke="black" stroke-width="2"/>
<rect x="7.20001" y="14.4" width="2.4" height="7.2" rx="1.2" fill="black"/>
<rect x="12" y="10.8" width="2.4" height="14.4" rx="1.2" fill="black"/>
<rect x="16.8" y="8.39999" width="2.4" height="19.2" rx="1.2" fill="black"/>
<rect x="21.6" y="10.8" width="2.4" height="14.4" rx="1.2" fill="black"/>
<rect x="26.4" y="14.4" width="2.4" height="7.2" rx="1.2" fill="black"/>
</svg>

<svg xmlns="http://www.w3.org/2000/svg" width="36" height="36" fill="none"><path stroke="#000" stroke-width="2" d="M31.856 8.845 19 1.423a2 2 0 0 0-2 0L4.144 8.845a2 2 0 0 0-1 1.732v14.846a2 2 0 0 0 1 1.732L17 34.577a2 2 0 0 0 2 0l12.856-7.422a2 2 0 0 0 1-1.732V10.577a2 2 0 0 0-1-1.732Z"/><rect width="2.4" height="7.2" x="7.2" y="14.4" fill="#000" rx="1.2"/><rect width="2.4" height="14.4" x="12" y="10.8" fill="#000" rx="1.2"/><rect width="2.4" height="19.2" x="16.8" y="8.4" fill="#000" rx="1.2"/><rect width="2.4" height="14.4" x="21.6" y="10.8" fill="#000" rx="1.2"/><rect width="2.4" height="7.2" x="26.4" y="14.4" fill="#000" rx="1.2"/></svg>
